!!!!SEGMENT: pl-wn--sd-xvi-qu-273--055_gomolka-mikolaj--obronca-ucisnionych-boze-litosciwy.krn
!!!cenid: 15xx:260
!!!COM: Gomółka, Mikołaj
!!!COM-rismid: pe30013343
!!!CDT: ~1535->1591/04/30
!!!CNT: Polish
!!!GTL: Melodiae na psalterz polski
!!!OTL: LV. Obrońca uciśnionych, Boże litościwy,
!!!ONB: PSALM LV. Exaudi Deus orationem meam: et ne despexeris.
!!!PDT: 1580
!!!AGN: Sacred
!!!SMS-siglum: PL-Wn
!!!SMS-shelfmark: SD XVI.Qu.273
!!!SMS-shelfwork: 055 G
!!!NIFC-rismid:
!!!ONB-nifc: Melodiae na psalterz polski
**kern	**text	**kern	**text	**kern	**text	**kern	**text
*part4	*part4	*part3	*part3	*part2	*part2	*part1	*part1
*staff4	*staff4	*staff3	*staff3	*staff2	*staff2	*staff1	*staff1
*clefF4	*	*clefC4	*	*clefC3	*	*clefC1	*
*k[b-]	*	*k[b-]	*	*k[b-]	*	*k[b-]	*
*c:	*	*c:	*	*c:	*	*c:	*
*M2/1	*	*M2/1	*	*M2/1	*	*M2/1	*
*met(C|)	*	*met(C|)	*	*met(C|)	*	*met(C|)	*
*I"BASSUS.	*	*I"TENOR.	*	*I"ALTUS.	*	*I"CANTUS.	*
*>[A,A,B]	*	*>[A,A,B]	*	*>[A,A,B]	*	*>[A,A,B]	*
=1-	=1	=1-	=1	=1-	=1	=1-	=1
*>A	*	*>A	*	*>A	*	*>A	*
*	*^	*	*^	*	*^	*	*^
1D\	O-	U-	2.A/	O-	u-	1d\	O-	.	1a\	O-	U-
.	.	.	4B-\	-Broń-	-słysz	.	.	.	.	.	.
1AA/	-Broń-	-słysz	1c#X\	-cá	mo-	1e\	-Broń-	U-	1a\	-Broń-	-słysz
=2-	=2	=2	=2-	=2	=2	=2-	=2	=2	=2-	=2	=2
2D/	-cá	mo-	2d\	u-	-dli-	2f\	-(cá)	-słysz	2a\	-cá	mo-
2B-\	u-	-dli-	2d\	-ći-	-twę	2f\	u-	mo-	2b-\	u-	-dli-
2G\	-ći-	-twę	2d\	-śnio-	mo-	2g\	-ći-	-dli-	2b-\	-ći-	-twę
2A\	-śnio-	mo-	2cny\	-nych,	-ię,	2e\	-śnio-	-twę	2a\	-śnio-	mo-
=3-	=3	=3	=3-	=3	=3	=3-	=3	=3	=3-	=3	=3
2D/	-nych	-ię,	2d\	bo-	y	2f\	-(nych,)	.	2a\	-nych,	-ię,
1D\	Bo-	y	1f\	-że	głos	1d\	Bo-	mo-	2.a\	Bo-	y
.	.	.	.	.	.	.	.	.	4b-\	-że	głos
2AA/	-że	głos	2e\	li-	żá-	2c/	-że	-ię,	2cc\	-li-	żá-
=4-	=4	=4	=4-	=4	=4	=4-	=4	=4	=4-	=4	=4
2BB-/	li-	źá-	2d\	-to-	-ło-	4d\	li-	y	2b-\	-to-	-ło-
.	.	.	.	.	.	4e\	.	głos	.	.	.
2FF/	-to-	-ło-	2c\	-śći-	-śći-	4f\	.	.	1a\	.	-śći-
.	.	.	.	.	.	4e\	-to-	żá-	.	.	.
1GG/	-śći-	-śći-	1B-\	-wy,	-wy.	4d\	.	-ło-	.	.	.
.	.	.	.	.	.	4c\	-śći-	-sći-	.	.	.
.	.	.	.	.	.	2d	-wy,	-wy:	2g/	-śći-	-wy:
=5-	=5	=5	=5-	=5	=5	=5-	=5	=5	=5-	=5	=5
1D\	-wy,	-wy:	1A\	.	.	1d\	.	.	1a\	-wy	.
*	*v	*v	*	*v	*v	*	*v	*v	*	*v	*v
==:|!	==	==:|!	==	==:|!	==	==:|!	==
*>B	*	*>B	*	*>B	*	*>B	*
1AA/	Nie	1c#X\	Nie	1e\	Nie	1a\	Nie
=6-	=6	=6-	=6	=6-	=6	=6-	=6
1D\	pro-	1d\	pro-	1f\	pro-	1a\	pro-
2D\	-szęć	2d\	-szęć	2f\	-(szęć)	2a\	-szęć
2E\	á-	2g\	á-	2c/	á-	2cc\	á-
=7-	=7	=7-	=7	=7-	=7	=7-	=7
!!LO:PB:g=original
4F\	-le	2f\	-le	2c/	-le	2cc\	-le
4G\	wo-	.	.	.	.	.	.
2A\	-łam:	2e\	wo-	2a\	wo-	2cc#X\	wo-
2D/	.	2d\	-łam:	2a\	-łam:	2dd\	-łam:
2D/	tá-	2f\	tá-	2a\	tá-	2dd\	tá-
=8-	=8	=8-	=8	=8-	=8	=8-	=8
2BB-/	-kem	2f\	-kem	2b-\	-kem	2dd\	-(kem)
2C/	ia	2e\	ia	4a\	ia	2ccny\	ia
.	.	.	.	4g\	.	.	.
2.D/	dźiś	2d\	dźiś	2f\	dźiś	2b-\	dźiś
.	.	2d\	z stro-	2f\	z stro-	2a\	z stro-
4E\	.	.	.	.	.	.	.
=9-	=9	=9-	=9	=9-	=9	=9-	=9
2F\	z stro-	2cny\	.	2f\	-ny	2a\	-ny
4BB-/	-ny	2d\	-ny	2f\	Nie-	2b-\	Nie-
4C/	.	.	.	.	.	.	.
4D/	Nie-	2d\	Nie-	2f\	-przy-	2a\	-przy-
4E\	.	.	.	.	.	.	.
2F\	-przy-	2c\	-przy-	2f\	-ia-	2a\	-ia-
=10-	=10	=10-	=10	=10-	=10	=10-	=10
2G\	-ia-	1B-\	-ia-	2d\	-ćie-	1g\	-ćie-
2GG/	-ćie-	.	.	2d\	-lá	.	.
2D/	-lá	2A/	-ćie-	2d\	swe-	2f#X/	-lá
2E\	swe-	2G/	-lá	2c\	.	2g/	swe-
=11-	=11	=11-	=11	=11-	=11	=11-	=11
2D/	.	2A/	swe-	2d\	-go	2fny/	-(go)
1C/	-go	1c\	-go	2.G/	wiel-	1e-X/	wiel-
.	.	.	.	4A/	.	.	.
2GG/	zá-	2B-\	zá-	4B-/	.	4d/	-(ce)
.	.	.	.	4c/	.	4e-/	.
=12-	=12	=12-	=12	=12-	=12	=12-	=12
2D/	-trwo-	2A/	-trwo-	2d\	.	2f#X/	zá-
2E\	.	2G/	-źo-	2c\	.	1g\	-trwo-
2C/	-żo-	1A\	-ny.	4e\	-(ce)	.	.
.	.	.	.	8d\L	zá-	.	.
.	.	.	.	8e\J	-trwo-	.	.
!	!	!	!	!	!	!LO:SIC:s=2f#:v	!
2D/	-ny.	.	.	4d\	-(żo-	2fny/	-żo-
.	.	.	.	4c\	.	.	.
=13-	=13	=13-	=13	=13-	=13	=13-	=13
*000/left	*	*	*	*	*	*	*
000GG/	.	000G\	.	000Bn/	-ny.)	000g\	-ny.
==	==	==	==	==	==	==	==
*-	*-	*-	*-	*-	*-	*-	*-
!!!RDF**kern: l = terminal long
!!!system-decoration: s1,s2,s3,s4
!!!ENC: Marta Lawrence
!!!END: 2020-02-11
!!!URL-scan: https://polona.pl/item/melodiae-na-psalterz-polski,Nzk3MTM4ODQ/139 Scan on Polona
!!!IIIF: https://polona.pl/iiif/item/Nzk3MTM4ODQ/manifest.json
